X:1
T:Title
%%score { 1 | 2 }
L:1/8
Q:1/4=104
M:4/4
K:A
V:1 treble nm="Grand Piano"
V:2 bass 
V:1
 [CE][CE][CE][CE] [CE]2 [EA]2 | A2 G4 z2 | EEEE E2 B2 | [CEA]6 z2 | cccc c2 d2 | c2 B4 z2 | %6
w: J.~H.~Rosecrans * * * * *||||||
 BcB[CFA] [B,EG]2 [A,^DF]2 | [G,E]6 z2 | [DGB][DGB][DGB][DGB] [DGB]2 [EAc]2 | [DEB]2 [CEA]4 z2 | %10
w: ||||
 cccc d2 c2 | B6 z2 | cccc c2 [=Ge]2 | [Fd]2 [Fd]4 z2 | [DGB][DGB][DGB][DGB] [EAc]2 [DEB]2 | %15
w: |||||
 [CEA]6 z2 | [A,DF]2 [Fd]2 [Fd]2 [DF]2 | [CE]2 [Ec]2 [Ec]2 [CA]2 | cccc d2 c2 | B6 z2 | %20
w: |||||
 cccc c2 [=Ge]2 | [Fd]2 [Fd]4 z2 | [DGB][DGB][DGB][DGB] [EAc]2 [DEB]2 | [CEA]6 z2 |] %24
w: ||||
V:2
 [A,,A,][A,,A,][A,,A,][A,,A,] [A,,A,]2 [C,A,]2 | [E,CE]2 [E,B,E]4 z2 | %2
 [E,D][E,D][E,D][E,D] [E,D]2 [E,D]2 | A,,6 z2 | [A,E][A,E][A,E][A,E] [A,E]2 [A,F]2 | %5
 [E,A,E]2 [E,G,E]4 z2 | [E,G,E][E,A,E][E,G,E]A,, B,,2 B,,2 | E,6 z2 | E,E,E,E, E,2 E,2 | %9
 A,,2 A,,4 z2 | [A,E][A,E][A,E][A,E] [A,F]2[K:bass] [A,E]2 | [E,G,E]6 z2 | %12
 [A,E][A,E][A,E][A,E] [A,E]2 [C,A,]2 | [D,A,]2 [D,A,]4 z2 | E,E,E,E, E,2 E,2 | A,,6 z2 | %16
 D,2 [D,A,]2 [D,A,]2 [D,A,]2 | [A,,A,]2 [A,,A,]2 [A,,A,]2 [A,,A,]2 | %18
 [A,E][A,E][A,E][A,E] [A,F]2[K:bass] [A,E]2 | [E,G,E]6 z2 | [A,E][A,E][A,E][A,E] [A,E]2 [C,A,]2 | %21
 [D,A,]2 [D,A,]4 z2 | E,E,E,E, E,2 E,2 | A,,6 z2 |] %24

